public/images/python.svg

<svg width="52" height="52" viewBox="0 0 52 52" fill="none" xmlns="http://www.w3.org/2000/svg">
<g id="Group 62">
<path id="Vector" d="M26.0856 0.0875244C13.0224 0.0875244 13.838 5.75252 13.838 5.75252L13.8525 11.6216H26.3186V13.3837H8.90123C8.90123 13.3837 0.542053 12.4357 0.542053 25.6164C0.542053 38.7975 7.83815 38.3301 7.83815 38.3301H12.1924V32.2135C12.1924 32.2135 11.9577 24.9174 19.3721 24.9174H31.7361C31.7361 24.9174 38.6826 25.0296 38.6826 18.2038V6.91776C38.6826 6.91776 39.7377 0.0875244 26.0856 0.0875244ZM19.2119 4.03439C19.5065 4.03412 19.7982 4.09195 20.0704 4.20456C20.3426 4.31716 20.5899 4.48235 20.7982 4.69065C21.0065 4.89895 21.1717 5.14628 21.2843 5.41848C21.3969 5.69069 21.4548 5.98243 21.4545 6.27701C21.4548 6.57159 21.3969 6.86334 21.2843 7.13554C21.1717 7.40775 21.0065 7.65508 20.7982 7.86338C20.5899 8.07168 20.3426 8.23686 20.0704 8.34947C19.7982 8.46208 19.5065 8.51991 19.2119 8.51964C18.9173 8.51991 18.6256 8.46208 18.3533 8.34947C18.0811 8.23686 17.8338 8.07168 17.6255 7.86338C17.4172 7.65508 17.252 7.40775 17.1394 7.13554C17.0268 6.86334 16.969 6.57159 16.9692 6.27701C16.969 5.98243 17.0268 5.69069 17.1394 5.41848C17.252 5.14628 17.4172 4.89895 17.6255 4.69065C17.8338 4.48235 18.0811 4.31716 18.3533 4.20456C18.6256 4.09195 18.9173 4.03412 19.2119 4.03439V4.03439Z" fill="url(#paint0_linear_3104_412)"/>
<path id="Vector_2" d="M26.4566 51.278C39.5199 51.278 38.7042 45.613 38.7042 45.613L38.6897 39.744H26.2235V37.982H43.6408C43.6408 37.982 52 38.93 52 25.7489C52 12.5679 44.7039 13.0354 44.7039 13.0354H40.3496V19.1517C40.3496 19.1517 40.5844 26.4478 33.17 26.4478H20.8059C20.8059 26.4478 13.8594 26.3356 13.8594 33.1616V44.4479C13.8594 44.4479 12.8046 51.278 26.4564 51.278H26.4566ZM33.3304 47.3315C33.0358 47.3318 32.7441 47.2739 32.4718 47.1613C32.1996 47.0487 31.9523 46.8835 31.744 46.6752C31.5357 46.4669 31.3705 46.2196 31.2579 45.9474C31.1453 45.6752 31.0875 45.3835 31.0877 45.0889C31.0875 44.7943 31.1453 44.5025 31.2579 44.2303C31.3705 43.9581 31.5356 43.7107 31.7439 43.5024C31.9522 43.2941 32.1996 43.1289 32.4718 43.0162C32.744 42.9036 33.0358 42.8458 33.3304 42.846C33.625 42.8458 33.9167 42.9036 34.1889 43.0162C34.4611 43.1288 34.7084 43.294 34.9167 43.5023C35.125 43.7106 35.2902 43.9579 35.4028 44.2301C35.5154 44.5024 35.5733 44.7941 35.573 45.0887C35.5733 45.3833 35.5154 45.675 35.4028 45.9472C35.2902 46.2194 35.125 46.4667 34.9167 46.675C34.7084 46.8833 34.4611 47.0485 34.1889 47.1611C33.9167 47.2737 33.625 47.3316 33.3304 47.3313V47.3315Z" fill="url(#paint1_linear_3104_412)"/>
</g>
<defs>
<linearGradient id="paint0_linear_3104_412" x1="5.48714" y1="4.69179" x2="30.9881" y2="29.9384" gradientUnits="userSpaceOnUse">
<stop stop-color="#387EB8"/>
<stop offset="1" stop-color="#366994"/>
</linearGradient>
<linearGradient id="paint1_linear_3104_412" x1="21.1397" y1="20.9037" x2="48.5248" y2="46.7917" gradientUnits="userSpaceOnUse">
<stop stop-color="#FFE052"/>
<stop offset="1" stop-color="#FFC331"/>
</linearGradient>
</defs>
</svg>

<svg xmlns="http://www.w3.org/2000/svg" width="52" height="52" fill="none"><path fill="url(#a)" d="M26.086.088c-13.064 0-12.248 5.665-12.248 5.665l.014 5.869H26.32v1.762H8.9S.542 12.436.542 25.616c0 13.181 7.296 12.714 7.296 12.714h4.354v-6.116s-.234-7.297 7.18-7.297h12.364s6.947.113 6.947-6.713V6.918S39.738.088 26.086.088Zm-6.874 3.946a2.24 2.24 0 0 1 2.072 3.102 2.24 2.24 0 0 1-2.93 1.213 2.24 2.24 0 0 1-1.215-2.93 2.24 2.24 0 0 1 2.073-1.385Z"/><path fill="url(#b)" d="M26.457 51.278c13.063 0 12.247-5.665 12.247-5.665l-.014-5.869H26.224v-1.762H43.64S52 38.93 52 25.749c0-13.181-7.296-12.714-7.296-12.714H40.35v6.117s.234 7.296-7.18 7.296H20.806s-6.947-.112-6.947 6.714v11.286s-1.054 6.83 12.597 6.83Zm6.873-3.947a2.24 2.24 0 0 1-2.072-3.1 2.24 2.24 0 0 1 2.93-1.215 2.24 2.24 0 0 1 1.215 2.931 2.24 2.24 0 0 1-2.073 1.384Z"/><defs><linearGradient id="a" x1="5.487" x2="30.988" y1="4.692" y2="29.938" gradientUnits="userSpaceOnUse"><stop stop-color="#387EB8"/><stop offset="1" stop-color="#366994"/></linearGradient><linearGradient id="b" x1="21.14" x2="48.525" y1="20.904" y2="46.792" gradientUnits="userSpaceOnUse"><stop stop-color="#FFE052"/><stop offset="1" stop-color="#FFC331"/></linearGradient></defs></svg>
